!!!COM: matt-nathanson
!!!OTL: come-on-get-higher
!!!RNB: hooktheoryid: nYAg-XWamle
**kern	**text
*clefG2	*
*k[f#c#g#]	*
*M4/4	*
=1	=1
8r	A/C#
8a	.
8a	.
8e	.
8a	.
16a	D
8.b	.
[8a	.
=2	=2
4a]	A
2.r	.
=3	=3
8r	A/C#
8ee	.
8.ee	.
8.ff#	.
16ee	D
8.ee	.
[8cc#	.
=4	=4
4cc#]	A
2.r	.
=5	=5
4r	A/C#
8cc#	.
4dd	.
8cc#	D
8a	.
[8b	.
=6	=6
8b]	A
4.a	.
8r	.
8a	.
8a	.
[8g#	.
=7	=7
8g#]	A/C#
4a	.
4a	.
8a	D
8a	.
[8dd	.
=8	=8
8dd]	E
8cc#	.
8b	.
4..b	.
16a	.
16a	.
16a	.
=9	=9
8.a	D
16a	.
8b	.
4b	.
8.a	.
16a	.
16a	.
16a	.
=10	=10
8a	A
16a	.
8.b	.
4.b	.
4r	.
=11	=11
8a	F#m
8a	.
8b	.
4.a	.
8.r	.
16a	.
=12	=12
8a	E
8a	.
8.b	.
2b	.
16b	.
=13	=13
1r	.
*-	*-